X:1
T:Title
%%score { ( 1 3 ) | ( 2 4 ) }
L:1/8
M:4/4
K:Bb
V:1 treble nm="Grand Piano"
V:3 treble 
V:2 bass 
V:4 bass 
V:1
 z4 z2 z[Q:1/4=86] [DF] | [DB][DB][DB][DF] [FA]GGB |[M:7/8] AEE G [DF]3 |[M:1/8] [DF] | %4
[M:4/4] [DB][DB][DB][DF] [FA]G GG/G/ |[M:7/8] F2 z A [B,DB]2 z |[M:1/8] [A,EF]/[A,EF]/ | %7
[M:4/4] [B,B]4 G4 |[M:7/8] [Cc]3 z A3 |[M:1/8] F |[M:4/4] [Dd][Ec][FB][DF] [FA][EG][EG][FG] | %11
[M:7/8] [=Ec][Ed][Ec] GB AG |[M:1/8] F |[M:4/4] [Dd][Ec][FB][DF] [FA]G GG/G/ |[M:7/8] F3 z z z2 |] %15
V:2
 z4 z2 z [B,,B,] | [B,,F,][B,,F,][B,,F,][D,B,] [E,B,][E,B,E][E,B,E][G,B,E] | %2
[M:7/8] [F,CE][F,A,C][F,A,C] [F,A,E] [B,,B,]3 |[M:1/8] [B,,B,] | %4
[M:4/4] [B,,F,][B,,F,][B,,F,][D,B,] [E,B,][E,B,E] [E,B,E][=E,B,_D]/[E,B,D]/ | %5
[M:7/8] [F,B,D]2 z [F,A,E] B,,2 z |[M:1/8] F,/F,/ |[M:4/4] B,,C,D,B,, z B, B,D,/D,/ | %8
[M:7/8] C,D,=E, C, z CC |[M:1/8] [F,A,E] | %10
[M:4/4] [B,,B,][C,A,][D,B,][D,B,] [E,B,][E,B,][E,B,][D,=B,] | %11
[M:7/8] [C,C][C,C][C,C] [=E,C=E][F,C_E] [F,CE][F,B,E] |[M:1/8] [F,A,E] | %13
[M:4/4] [B,,B,][C,A,][D,B,][D,B,] [E,B,][E,B,E] [E,B,E][=E,B,_D]/[E,B,D]/ | %14
[M:7/8] [B,D]B,B, F, B,,3 |] %15
V:3
 x8 | x8 |[M:7/8] x7 |[M:1/8] x |[M:4/4] x8 |[M:7/8] x7 |[M:1/8] x | %7
[M:4/4] DEF[B,FA] [B,E]E E[=B,FG]/[B,FG]/ |[M:7/8] =EFG [CEB][CF] FF |[M:1/8] x |[M:4/4] x8 | %11
[M:7/8] x7 |[M:1/8] x |[M:4/4] x8 |[M:7/8] z DD [CEA] [B,DB]3 |] %15
V:4
 x8 | x8 |[M:7/8] x7 |[M:1/8] x |[M:4/4] x8 |[M:7/8] x7 |[M:1/8] x |[M:4/4] z4 E,4 | %8
[M:7/8] z z z2 F,3 |[M:1/8] x |[M:4/4] x8 |[M:7/8] x7 |[M:1/8] x |[M:4/4] x8 |[M:7/8] F,3 z z z2 |] %15

